X:1
T:Little white lies
M:2/4
L:1/16
K:A
cd | ea2b a2ef | =gfga bgag | ea2b a2ef| =gedB A2A2|!
ea2b a2ef | =gfga bgag | ea2b a2ef| =gedc A2:|]!
cd | e2ec ABcB | cBAF E2cd | e2ec ABcA | BA=GB A2A2|!
e2ec ABcB | cBAF E2E2 | EA2A ABcB | cBAG A2:|]!
